X: 1
T:Margaret Chisholm's Jig
N:Scots-L, 6/99
M:6/8
L:1/8
C:Dan Hughie MacEachern
S:D.H. MacEachern
R:jig
K:C
F|:EGB ece|fef g2 a|1 gec cBc| dBG G2 F:|2 gec Bdg| c3 c2 e|!
g3 gfg| agf g2 a2| gec cBc| dBG G3|
1 g3 gfg| agf g2 a| gec Bdg| c3 c2 e:|!
|2 F2|EGc ege|faf g2 a| gec Bdg| c3 c||
